src/images/icon-staking-green.svg

<svg fill="none" height="38" viewBox="0 0 38 38" width="38" xmlns="http://www.w3.org/2000/svg"><path d="m11.0833 11.0833 1.1196-1.11956c-.4528-.45282-1.1338-.58829-1.7255-.34322-.59164.24507-.9774.82238-.9774 1.46278zm0 15.8334h-1.5833c0 .6404.38576 1.2177.9774 1.4628.5917.2451 1.2727.1096 1.7255-.3433zm15.8334-15.8334h1.5833c0-.6404-.3857-1.21771-.9774-1.46278s-1.2727-.1096-1.7255.34322zm0 15.8334-1.1196 1.1195c.4528.4529 1.1338.5884 1.7255.3433s.9774-.8224.9774-1.4628zm-5.0779-12.9946c-.6183.6183-.6183 1.6208 0 2.2391s1.6208.6183 2.2391 0zm-5.6776 10.1558c.6183-.6183.6183-1.6209 0-2.2391-.6183-.6183-1.6208-.6183-2.2391 0zm-6.6612-12.9946v15.8334h3.1667v-15.8334zm15.8333 0v15.8334h3.1667v-15.8334zm2.7029 14.7138-15.8333-15.83336-2.23916 2.23916 15.83336 15.8333zm-3.9583-9.6359 3.9583-3.9583-2.2391-2.23916-3.9583 3.95836zm-11.875 11.875 3.9583-3.9583-2.2391-2.2391-3.95836 3.9583z" fill="#8dd4bd"/><path d="m19 36.4167c9.619 0 17.4167-7.7977 17.4167-17.4167 0-9.61896-7.7977-17.41666-17.4167-17.41666-9.61896 0-17.41666 7.7977-17.41666 17.41666 0 9.619 7.7977 17.4167 17.41666 17.4167z" stroke="#8dd4bd" stroke-width="2"/></svg>

<svg width="38" height="38" viewBox="0 0 38 38" fill="none" xmlns="http://www.w3.org/2000/svg">
<path d="M11.0833 11.0833L12.2029 9.96374C11.7501 9.51092 11.0691 9.37545 10.4774 9.62052C9.88576 9.86559 9.5 10.4429 9.5 11.0833H11.0833ZM11.0833 26.9167H9.5C9.5 27.5571 9.88576 28.1344 10.4774 28.3795C11.0691 28.6246 11.7501 28.4891 12.2029 28.0362L11.0833 26.9167ZM26.9167 11.0833H28.5C28.5 10.4429 28.1143 9.86559 27.5226 9.62052C26.9309 9.37545 26.2499 9.51092 25.7971 9.96374L26.9167 11.0833ZM26.9167 26.9167L25.7971 28.0362C26.2499 28.4891 26.9309 28.6246 27.5226 28.3795C28.1143 28.1344 28.5 27.5571 28.5 26.9167H26.9167ZM21.8388 13.9221C21.2205 14.5404 21.2205 15.5429 21.8388 16.1612C22.4571 16.7795 23.4596 16.7795 24.0779 16.1612L21.8388 13.9221ZM16.1612 24.0779C16.7795 23.4596 16.7795 22.457 16.1612 21.8388C15.5429 21.2205 14.5404 21.2205 13.9221 21.8388L16.1612 24.0779ZM9.5 11.0833V26.9167H12.6667V11.0833H9.5ZM25.3333 11.0833V26.9167H28.5V11.0833H25.3333ZM28.0362 25.7971L12.2029 9.96374L9.96374 12.2029L25.7971 28.0362L28.0362 25.7971ZM24.0779 16.1612L28.0362 12.2029L25.7971 9.96374L21.8388 13.9221L24.0779 16.1612ZM12.2029 28.0362L16.1612 24.0779L13.9221 21.8388L9.96374 25.7971L12.2029 28.0362Z" fill="#8DD4BD"/>
<path d="M19 36.4167C28.619 36.4167 36.4167 28.619 36.4167 19C36.4167 9.38104 28.619 1.58334 19 1.58334C9.38104 1.58334 1.58334 9.38104 1.58334 19C1.58334 28.619 9.38104 36.4167 19 36.4167Z" stroke="#8DD4BD" stroke-width="2"/>
</svg>
